icons/layout-line.svg

<svg viewBox="0 0 24 24" fill="currentColor" xmlns="http://www.w3.org/2000/svg">
    <path d="M5 8H19V5H5V8ZM14 19V10H5V19H14ZM16 19H19V10H16V19ZM4 3H20C20.5523 3 21 3.44772 21 4V20C21 20.5523 20.5523 21 20 21H4C3.44772 21 3 20.5523 3 20V4C3 3.44772 3.44772 3 4 3Z"/>
</svg>

<svg xmlns="http://www.w3.org/2000/svg" viewBox="0 0 24 24">
    <g>
        <path fill="none" d="M0 0h24v24H0z"/>
        <path d="M5 8h14V5H5v3zm9 11v-9H5v9h9zm2 0h3v-9h-3v9zM4 3h16a1 1 0 0 1 1 1v16a1 1 0 0 1-1 1H4a1 1 0 0 1-1-1V4a1 1 0 0 1 1-1z"/>
    </g>
</svg>
